X: 739
T: Eyle Kerem Uşşâkına
C: Numan Ağa
O: Turkey
F: http://compmusic.upf.edu/node/140
N: hisarbuselik--sarki--aksak--eyle_kerem--numan_aga
N: makam= hisarbuselik
N: form= sarki
N: usul= aksak = 9/8
M: 9/8
L: 1/16
K: C _1/4B   
Q: 1/4=120
%%MIDI tuningsystem comma53
^d2e3ede f2ed cdc=B A^G | A=B c^def ^gagf ede4z2  | 
w:  ARANAĞME  |   | 
^3/4f2g4f2 g3/2f/g_b ag=fe d2 | c2 =BABd cBBA A^GAB c^def  | 
w:   |   | 
^d2e3ede f2ed cdc=B A^G | A=B c^def ^gagf ede4z2  | 
w:  ARANAĞME  |   | 
^3/4f2g4f2 g3/2f/g_b ag=fe d2 | c2 =BABd cBBA A^GA3e^df  | 
w:   |   | 
e4 e2^gf fee^d edc=B A2 | =BA ^GAB2 c^de3/2d/ cde4z2  | 
w:  Ah  ey le  *  ke *  *  *  rem   |  uş *  *  *  şâ *  *  kı *  *  *  na   | 
e4 ^gf3 fee^d e4 =b2 | a3/2^g/ fag3/2f/ egf3/2e/ ^dfe4z2  | 
w:  ağ lat *  ma  *  *  *  *  a  |  man    | 
e4 e2^gf fee^d edc=B A2 | =BA ^GAB2 c^de3/2d/ cde4z2  | 
w:  Ah  ey le  *  ke *  *  *  rem   |  uş *  *  *  şâ *  *  kı *  *  *  na   | 
e4 ^gf3 fee^d e4 =b2 | a3/2^g/ fag3/2f/ egf3/2e/ ^dfe4z2  | 
w:  ağ lat *  ma  *  *  *  *  a  |  man    | 
e4 g2{a}g^3/4f gfga _bag=f e2 | f3/2e/ deda gffe2ddd c=Bc2  | 
w:  Teş rîf  *  *  *  ey *  *  *  le   |  bez *  *  *  *  *  mi *  mi *  *  ze   | 
dc=Bc dfed cdcB A4 e2 | d3/2c/ =BdcB ABcB A^GA2 e^f^g2  | 
w:  bu  *  *  *  ge *  *  *  ce  *  *  *  *  he  |  mân   *  *  *  *  *  *  *  *  *  *  *  *  SAZ  | 
e4 g2{a}g^3/4f gfga _bag=f e2 | f3/2e/ deda gffe2ddd c=Bc2  | 
w:  Teş rîf  *  *  *  ey *  *  *  le   |  bez *  *  *  *  *  mi *  mi *  *  ze   | 
dc=Bc dfed cdcB A4 e2 | d3/2c/ =BdcB ABcB A^GAB/c/ d/e/f/^g/a2  | 
w:  bu  *  *  *  ge *  *  *  ce  *  *  *  *  he  |  mân   *  *  *  *  *  *  *  *  *  *  *  *  SAZ  | 
a4 =ba^ga bc'ba b2c'4 | =ba ^gfg2 a2gf e^def gabc'  | 
w:  Ah  â *  teş_ *  i  *  *  *  aş  |  kın *  *  *  la  *  câ *  *  *  nân   | 
=ba^gf e2b2 ag2f efga b2 | ^ga =b^3/4c'd'2 =c'bba agag fe^d2  | 
w:  *  *  *  *  bu  te nim  *  *  sû  |  zân    | 
a2{=b}a^g b2a=g gffe ef^ga b2 | a3/2^g/ fag3/2f/ egf3/2e/ ^dfe4z2  | 
w:  ah  *  *  *  bu  te *  nim  *  *  *  sû  |  zân    | 
e4 g2{a}g^3/4f gfga _bag=f e2 | f3/2e/ deda gffe2ddd c=Bc2  | 
w:  Teş rîf  *  *  *  ey *  *  *  le   |  bez *  *  *  *  *  mi *  mi *  *  ze   | 
dc=Bc dfed cdcB A4 e2 | d3/2c/ =BdcB ABcB A^GA2 e^f^g2  | 
w:  bu  *  *  *  ge *  *  *  ce  *  *  *  *  he  |  mân   *  *  *  *  *  *  *  *  *  *  *  *  SAZ  | 
e4 g2{a}g^3/4f gfga _bag=f e2 | f3/2e/ deda gffe2ddd c=Bc2  | 
w:  Teş rîf  *  *  *  ey *  *  *  le   |  bez *  *  *  *  *  mi *  mi *  *  ze   | 
dc=Bc dfed cdcB A4 e2 | d3/2c/ =BdcB ABcB A^GA|
w:  bu  *  *  *  ge *  *  *  ce  *  *  *  *  he  |  mân    | 


